Sources/FrostedUI/Resources/Icons.xcassets/eye24.imageset/eye-24.svg

<svg width="24" height="24" viewBox="0 0 24 24" fill="none" xmlns="http://www.w3.org/2000/svg" data-fui-icon="true">
  <path
    d="M12.282 3.00391C12.3932 3.00727 12.5041 3.01424 12.614 3.02148C12.657 3.02431 12.7002 3.02785 12.7429 3.03125C12.7888 3.03491 12.835 3.03865 12.8806 3.04297C12.9403 3.0486 13.0001 3.05479 13.0593 3.06152C13.0928 3.06534 13.1266 3.06909 13.1599 3.07324C13.2255 3.08141 13.2912 3.09012 13.3562 3.09961C13.3825 3.10345 13.4091 3.10824 13.4353 3.1123C13.5051 3.12309 13.5751 3.13422 13.6443 3.14648C13.6474 3.14704 13.6509 3.14786 13.6541 3.14844C13.9928 3.20887 14.3243 3.28755 14.6482 3.38086C14.6699 3.3871 14.692 3.39304 14.7136 3.39941C14.8706 3.44577 15.0261 3.49552 15.1794 3.54883C15.1875 3.55163 15.1958 3.55479 15.2039 3.55762C15.522 3.66911 15.8332 3.79352 16.1355 3.93164C16.1416 3.93443 16.148 3.93762 16.1541 3.94043L16.157 3.94238C17.7908 4.69317 19.1896 5.80018 20.3152 6.91602C20.3614 6.96183 20.4065 7.00877 20.4519 7.05469C20.458 7.06044 20.4645 7.06628 20.4705 7.07227C20.5022 7.10442 20.5329 7.13773 20.5642 7.16992C20.6268 7.23429 20.6888 7.29887 20.7498 7.36328C20.816 7.4333 20.8817 7.50331 20.946 7.57324C20.9882 7.61901 21.0307 7.66429 21.072 7.70996C21.1219 7.76517 21.1708 7.82097 21.2195 7.87598C21.2931 7.95922 21.3655 8.04243 21.4363 8.125C21.466 8.15962 21.496 8.19405 21.5251 8.22852C21.587 8.30152 21.6482 8.37408 21.7078 8.44629C21.8735 8.6472 22.0304 8.84502 22.1785 9.03711C22.2018 9.06741 22.2249 9.09791 22.2478 9.12793C22.3349 9.24206 22.4163 9.35618 22.4968 9.46582C22.5831 9.58327 22.6681 9.69631 22.7468 9.80762C22.7701 9.84057 22.7926 9.87389 22.8152 9.90625C22.9325 10.074 23.0414 10.2333 23.1404 10.3828C23.1979 10.4697 23.2512 10.5541 23.3025 10.6338C23.5682 11.0472 23.7509 11.3589 23.8416 11.5205C24.0099 11.8207 24.0099 12.1793 23.8416 12.4795C23.7596 12.6255 23.6029 12.8944 23.3777 13.25C23.3057 13.3636 23.2265 13.4862 23.1404 13.6162C23.0779 13.7106 23.01 13.8082 22.9402 13.9102C22.8781 14.0008 22.8146 14.0955 22.7468 14.1914C22.6814 14.284 22.6115 14.3777 22.5408 14.4746C22.4488 14.6007 22.3544 14.732 22.2537 14.8643C22.229 14.8966 22.2037 14.9292 22.1785 14.9619C22.0305 15.154 21.8735 15.3518 21.7078 15.5527C21.6671 15.602 21.6255 15.6515 21.5837 15.7012C21.54 15.7533 21.4958 15.806 21.4509 15.8584C21.3876 15.9324 21.3222 16.0064 21.2566 16.0811C21.1997 16.1457 21.1424 16.2114 21.0837 16.2764C21.0387 16.3263 20.9921 16.3757 20.946 16.4258C20.8817 16.4957 20.816 16.5657 20.7498 16.6357C20.6924 16.6964 20.6347 16.7578 20.5759 16.8184C20.5408 16.8545 20.5061 16.8916 20.4705 16.9277C20.4647 16.9336 20.4578 16.9387 20.4519 16.9443C20.4064 16.9904 20.3616 17.038 20.3152 17.084C19.1897 18.1997 17.7907 19.3059 16.157 20.0566C16.1561 20.0573 16.155 20.0591 16.1541 20.0596C16.1481 20.0623 16.1415 20.0646 16.1355 20.0674C15.8331 20.2056 15.5221 20.3308 15.2039 20.4424C15.1958 20.4452 15.1875 20.4484 15.1794 20.4512C15.0261 20.5045 14.8706 20.5542 14.7136 20.6006C14.692 20.607 14.6699 20.6129 14.6482 20.6191C14.3243 20.7124 13.9928 20.7911 13.6541 20.8516C13.6509 20.8521 13.6474 20.853 13.6443 20.8535C13.5751 20.8658 13.5051 20.8769 13.4353 20.8877C13.4091 20.8918 13.3825 20.8965 13.3562 20.9004C13.2912 20.9099 13.2255 20.9186 13.1599 20.9268C13.1266 20.9309 13.0928 20.9347 13.0593 20.9385C13.0001 20.9452 12.9403 20.9514 12.8806 20.957C12.835 20.9613 12.7888 20.9651 12.7429 20.9688C12.7002 20.9722 12.657 20.9757 12.614 20.9785C12.5041 20.9858 12.3932 20.9927 12.282 20.9961L11.9998 21L11.7175 20.9961C11.605 20.9927 11.4928 20.9859 11.3816 20.9785C11.3426 20.9759 11.3033 20.9728 11.2644 20.9697C11.2136 20.9657 11.1626 20.9609 11.1121 20.9561C11.0567 20.9508 11.0011 20.9457 10.946 20.9395C10.908 20.9351 10.8697 20.9305 10.8318 20.9258C10.7685 20.9178 10.7051 20.9096 10.6423 20.9004C10.616 20.8965 10.5895 20.8918 10.5632 20.8877C10.1499 20.8238 9.74692 20.7337 9.35522 20.6211C9.33088 20.6141 9.30624 20.6068 9.28198 20.5996C9.12577 20.5534 8.97077 20.5043 8.81812 20.4512C8.81007 20.4484 8.80174 20.4452 8.7937 20.4424C8.48455 20.334 8.18259 20.2117 7.88843 20.0781C7.87405 20.0716 7.85881 20.0661 7.84448 20.0596C7.84122 20.058 7.83797 20.0553 7.83472 20.0537C6.20412 19.3029 4.80811 18.1981 3.68433 17.084C3.63961 17.0396 3.59645 16.9937 3.55249 16.9492C3.54474 16.942 3.53556 16.9353 3.52808 16.9277C3.4915 16.8906 3.45572 16.8526 3.41968 16.8154C3.36365 16.7577 3.30839 16.6994 3.25366 16.6416C3.17627 16.5599 3.09991 16.4781 3.02515 16.3965C2.98846 16.3564 2.95182 16.3163 2.91577 16.2764C2.85087 16.2044 2.78718 16.1321 2.72437 16.0605C2.67893 16.0088 2.63296 15.9577 2.58862 15.9062C2.5215 15.8283 2.45595 15.75 2.39136 15.6729C2.35333 15.6274 2.31522 15.5822 2.27808 15.5371C2.23001 15.4787 2.18305 15.42 2.13647 15.3623C2.08716 15.3012 2.03762 15.241 1.98999 15.1807C1.94041 15.1179 1.89223 15.0549 1.84448 14.9932C1.81882 14.96 1.79246 14.9274 1.76733 14.8945L1.69995 14.8047C1.61543 14.693 1.53594 14.5818 1.45776 14.4746C1.3868 14.3774 1.3164 14.2833 1.25073 14.1904C1.18312 14.0948 1.11931 14.0006 1.05737 13.9102C0.987542 13.8082 0.919686 13.7106 0.857178 13.6162C0.799947 13.5298 0.747061 13.4456 0.696045 13.3662C0.430373 12.9528 0.247575 12.641 0.156982 12.4795C-0.0111546 12.1795 -0.0111534 11.8205 0.156982 11.5205L0.306396 11.2627C0.321331 11.2374 0.337797 11.2111 0.354248 11.1836C0.46616 10.9962 0.613233 10.7582 0.793701 10.4824C0.814846 10.4501 0.835119 10.4161 0.857178 10.3828C0.956252 10.2332 1.06597 10.0742 1.18335 9.90625C1.20572 9.87425 1.22771 9.84118 1.25073 9.80859C1.35295 9.66397 1.46386 9.5151 1.57886 9.36035C1.62762 9.29473 1.67529 9.22633 1.72632 9.15918C1.77993 9.08864 1.83527 9.01735 1.89136 8.94531C1.92423 8.90309 1.95724 8.86007 1.99097 8.81738C2.04519 8.74875 2.10155 8.68005 2.15796 8.61035C2.20218 8.55571 2.24717 8.50052 2.29272 8.44531C2.33295 8.39656 2.37451 8.34796 2.41577 8.29883C2.48006 8.22227 2.54529 8.14469 2.61206 8.06738C2.64905 8.02456 2.68662 7.98148 2.72437 7.93848C2.79346 7.85976 2.8637 7.78032 2.9353 7.70117C2.96803 7.665 3.00166 7.62901 3.03491 7.59277C3.10667 7.51457 3.17949 7.43574 3.25366 7.35742C3.30917 7.29881 3.36576 7.24021 3.42261 7.18164C3.4577 7.14548 3.49248 7.10838 3.52808 7.07227C3.53572 7.06452 3.54459 7.05714 3.55249 7.0498C3.59629 7.00553 3.63977 6.9602 3.68433 6.91602C5.02259 5.58925 6.74651 4.27543 8.7937 3.55762C8.80174 3.5548 8.81007 3.55163 8.81812 3.54883C8.97077 3.49573 9.12577 3.4466 9.28198 3.40039C9.30624 3.39322 9.33088 3.38591 9.35522 3.37891C9.74692 3.26626 10.1499 3.17622 10.5632 3.1123C10.5895 3.10824 10.616 3.10346 10.6423 3.09961C10.7051 3.09045 10.7685 3.08215 10.8318 3.07422C10.8697 3.06946 10.908 3.06486 10.946 3.06055C11.0011 3.05433 11.0567 3.04921 11.1121 3.04395C11.1626 3.03913 11.2136 3.03429 11.2644 3.03027C11.3033 3.02722 11.3426 3.02407 11.3816 3.02148C11.5851 3.008 11.7916 3.00001 11.9998 3L12.282 3.00391ZM11.5867 4.51172C11.5568 4.51328 11.5266 4.51372 11.4968 4.51562C11.3651 4.52412 11.234 4.53685 11.1042 4.55176C11.0806 4.55448 11.0566 4.55762 11.033 4.56055C10.9006 4.57697 10.7688 4.59635 10.6384 4.61914C10.6111 4.62392 10.5836 4.62972 10.5564 4.63477C10.3045 4.68149 10.0562 4.73979 9.81226 4.80859C9.7694 4.82067 9.72596 4.832 9.68335 4.84473C9.57491 4.87713 9.46693 4.91181 9.36011 4.94824C9.23307 4.99159 9.10692 5.03813 8.98218 5.08691C7.35242 5.72392 5.9229 6.80869 4.73999 7.98145C4.60084 8.11942 4.46592 8.25877 4.33472 8.39746C4.29663 8.43772 4.25884 8.47831 4.22144 8.51855C4.1479 8.59768 4.07553 8.67698 4.00464 8.75586C3.95894 8.80671 3.91348 8.85754 3.8689 8.9082C3.82461 8.95852 3.78024 9.00853 3.73706 9.05859C3.67277 9.13313 3.60943 9.20746 3.54761 9.28125C3.51253 9.32313 3.47837 9.36564 3.44409 9.40723C3.39252 9.46978 3.34149 9.53198 3.29175 9.59375C3.25371 9.64098 3.21543 9.68767 3.17847 9.73438C3.12393 9.80329 3.07048 9.87185 3.01831 9.93945C2.99308 9.97215 2.96779 10.0048 2.94312 10.0371C2.83416 10.18 2.73247 10.321 2.63452 10.4561C2.58364 10.5262 2.53297 10.5945 2.48511 10.6621C2.34746 10.8566 2.22127 11.0396 2.10913 11.209C1.98405 11.3979 1.87531 11.5696 1.78296 11.7188C1.71825 11.8233 1.66415 11.9187 1.61597 12C1.66 12.0743 1.70949 12.1601 1.76733 12.2539C1.89684 12.4639 2.06212 12.7191 2.25854 13.0078C2.33012 13.113 2.40493 13.2236 2.48511 13.3369C2.52716 13.3963 2.57158 13.4562 2.61597 13.5176C2.71581 13.6556 2.81993 13.7998 2.9314 13.9463C2.95992 13.9838 2.98903 14.0216 3.01831 14.0596C3.07048 14.1272 3.12393 14.1957 3.17847 14.2646C3.20184 14.2942 3.22595 14.3238 3.24976 14.3535C3.31198 14.4313 3.37602 14.5098 3.44116 14.5889C3.4763 14.6315 3.51163 14.6748 3.54761 14.7178C3.60943 14.7916 3.67277 14.8659 3.73706 14.9404C3.77637 14.986 3.81695 15.0314 3.85718 15.0771C3.90008 15.126 3.94313 15.1756 3.98706 15.2246C4.05724 15.3029 4.12911 15.3814 4.2019 15.46C4.24096 15.5021 4.28027 15.5447 4.32007 15.5869C4.45587 15.7308 4.59563 15.8754 4.73999 16.0186C5.92282 17.1912 7.35256 18.2751 8.98218 18.9121C9.10693 18.9609 9.23306 19.0074 9.36011 19.0508C9.46694 19.0872 9.5749 19.1219 9.68335 19.1543C9.72378 19.1664 9.76477 19.178 9.80542 19.1895C10.0515 19.2591 10.3022 19.3171 10.5564 19.3643C10.5836 19.3693 10.6111 19.3751 10.6384 19.3799C10.7688 19.4027 10.9006 19.4221 11.033 19.4385C11.0566 19.4414 11.0806 19.4445 11.1042 19.4473C11.2341 19.4622 11.3651 19.4749 11.4968 19.4834C11.5266 19.4853 11.5568 19.4857 11.5867 19.4873C11.7232 19.4945 11.8613 19.5 11.9998 19.5L12.4109 19.4873C12.4407 19.4857 12.471 19.4853 12.5007 19.4834C12.6331 19.4749 12.7648 19.4623 12.8953 19.4473C12.9176 19.4447 12.9404 19.4422 12.9626 19.4395C13.0947 19.4231 13.2261 19.4035 13.3562 19.3809C13.3881 19.3753 13.4201 19.3682 13.4519 19.3623C13.6984 19.3163 13.9415 19.2596 14.1804 19.1924C14.2257 19.1797 14.2712 19.1668 14.3162 19.1533C14.4217 19.1218 14.5267 19.0881 14.6306 19.0527C14.763 19.0077 14.8943 18.9591 15.0242 18.9082C16.6506 18.2708 18.0775 17.1894 19.2585 16.0186C19.3937 15.8846 19.5245 15.7489 19.6521 15.6143C19.7231 15.5393 19.7934 15.4645 19.8621 15.3896C19.9066 15.341 19.9513 15.2926 19.9949 15.2441C20.0448 15.1886 20.0937 15.1325 20.1423 15.0771C20.196 15.016 20.2495 14.9553 20.3015 14.8945C20.3376 14.8524 20.3726 14.8095 20.408 14.7676C20.4604 14.7054 20.5125 14.6436 20.5632 14.582C20.6031 14.5336 20.6427 14.4854 20.6814 14.4375C20.7387 14.3666 20.7954 14.2963 20.8503 14.2266C20.8853 14.1821 20.9198 14.1376 20.9539 14.0938C20.9922 14.0443 21.0301 13.995 21.0671 13.9463C21.1672 13.8148 21.2606 13.6844 21.3513 13.5596C21.7129 13.0621 22.0011 12.6247 22.2068 12.293C22.2746 12.1836 22.3316 12.0844 22.3816 12C22.3315 11.9154 22.2748 11.8157 22.2068 11.7061C21.9955 11.3654 21.6974 10.9133 21.322 10.3994C21.2366 10.2825 21.1489 10.1607 21.0554 10.0381C21.0031 9.96949 20.9491 9.90015 20.8943 9.83008C20.8774 9.80849 20.8606 9.78636 20.8435 9.76465C20.7906 9.69758 20.7365 9.62969 20.6814 9.56152C20.6427 9.51361 20.6031 9.46537 20.5632 9.41699C20.5125 9.35543 20.4604 9.29365 20.408 9.23145C20.3687 9.18487 20.3291 9.13768 20.2888 9.09082C20.2367 9.03015 20.1834 8.96926 20.1296 8.9082C20.0798 8.85156 20.0295 8.79418 19.9783 8.7373C19.9284 8.68194 19.8771 8.62679 19.8259 8.57129C19.7688 8.50931 19.7109 8.44679 19.6521 8.38477C19.5246 8.25025 19.3935 8.11525 19.2585 7.98145C18.0775 6.81055 16.6508 5.72818 15.0242 5.09082C14.8943 5.0399 14.763 4.99132 14.6306 4.94629C14.5267 4.91095 14.4216 4.87723 14.3162 4.8457C14.2712 4.83227 14.2257 4.81936 14.1804 4.80664C13.9415 4.73947 13.6984 4.68273 13.4519 4.63672C13.4201 4.63078 13.3881 4.62372 13.3562 4.61816C13.2262 4.59551 13.0947 4.57589 12.9626 4.55957C12.9404 4.55682 12.9176 4.55432 12.8953 4.55176C12.7648 4.53678 12.6331 4.52413 12.5007 4.51562C12.471 4.51373 12.4407 4.51329 12.4109 4.51172C12.275 4.50456 12.1377 4.50001 11.9998 4.5C11.8613 4.50001 11.7231 4.5045 11.5867 4.51172ZM11.9998 7C14.761 7.00016 16.9998 9.23868 16.9998 12C16.9998 14.7613 14.761 16.9998 11.9998 17C9.23852 16.9998 6.99976 14.7613 6.99976 12C6.99976 9.23871 9.23852 7.00022 11.9998 7ZM11.9998 8.5C10.0669 8.50022 8.49976 10.0671 8.49976 12C8.49976 13.9329 10.0669 15.4998 11.9998 15.5C13.9326 15.4998 15.4998 13.9329 15.4998 12C15.4998 10.0671 13.9326 8.50016 11.9998 8.5Z"
    fill="currentColor"
  />
</svg>

<svg xmlns="http://www.w3.org/2000/svg" width="24" height="24" fill="none" data-fui-icon="true" viewBox="0 0 24 24"><path fill="currentColor" d="M12.282 3.004q.167.006.332.017l.129.01a9 9 0 0 1 .316.03l.1.012q.1.012.197.027.04.005.08.012l.208.034.01.002q.508.092.994.233l.066.018q.236.07.465.15l.025.009q.478.167.931.374l.02.008.002.002c1.634.751 3.033 1.858 4.158 2.974l.137.139.018.017.094.098a20 20 0 0 1 .382.403l.126.137.148.166q.11.124.216.249l.09.104a22 22 0 0 1 .652.808l.07.09q.129.174.249.339.13.175.25.342l.068.098q.176.252.325.477.086.131.162.25c.266.414.449.726.54.888.168.3.168.658 0 .958a18 18 0 0 1-.702 1.137q-.094.142-.2.294-.092.136-.193.281-.1.139-.206.284-.138.19-.287.39l-.076.097a23 23 0 0 1-.594.74l-.133.156q-.096.11-.194.223l-.173.195-.138.15-.196.21q-.086.091-.174.182l-.105.11-.02.016-.136.14c-1.125 1.116-2.524 2.222-4.158 2.973l-.003.003-.018.007a11 11 0 0 1-.932.375l-.025.01a10 10 0 0 1-.465.149l-.066.018a10 10 0 0 1-.994.233l-.01.002-.209.034-.079.012q-.097.015-.196.027l-.1.012a9 9 0 0 1-.317.03l-.129.01q-.165.012-.332.017L12 21l-.283-.004a9 9 0 0 1-.605-.04q-.082-.007-.166-.017l-.304-.039-.079-.012a10 10 0 0 1-1.745-.437l-.024-.009a11 11 0 0 1-.906-.364l-.044-.018q-.004-.004-.01-.006c-1.63-.751-3.026-1.856-4.15-2.97l-.132-.135-.024-.021q-.055-.056-.108-.113a19 19 0 0 1-.696-.755q-.068-.076-.135-.154l-.198-.233-.113-.136-.142-.175-.146-.181-.146-.188-.077-.098-.067-.09q-.126-.169-.242-.33-.108-.146-.207-.285-.102-.144-.194-.28l-.2-.294q-.085-.13-.161-.25a18 18 0 0 1-.539-.886.98.98 0 0 1 0-.96l.15-.257q.021-.039.047-.08c.112-.187.26-.425.44-.7q.03-.05.063-.1.15-.225.326-.477l.068-.097q.154-.217.328-.449.072-.1.147-.2l.165-.215.1-.128.167-.207.135-.165.123-.146a22 22 0 0 1 .52-.598l.099-.108a20 20 0 0 1 .388-.411l.105-.11.024-.022.132-.134c1.339-1.327 3.063-2.64 5.11-3.358l.024-.01q.23-.078.464-.148l.073-.021a10 10 0 0 1 1.208-.267q.04-.007.08-.012a10 10 0 0 1 .303-.04l.166-.016.152-.014.118-.009q.305-.02.618-.021zm-.695 1.508-.09.004a8 8 0 0 0-.393.036l-.071.009a8 8 0 0 0-.395.058l-.082.016q-.377.07-.744.174l-.129.036a9 9 0 0 0-.7.242c-1.63.637-3.06 1.722-4.243 2.894a18 18 0 0 0-.871.927l-.132.15-.19.223-.103.126q-.078.094-.152.187l-.114.14-.16.205-.075.098q-.162.215-.308.42-.077.104-.15.205a22 22 0 0 0-.702 1.057q-.096.158-.167.281.065.112.151.254c.13.21.295.465.492.754q.106.159.226.329.064.09.131.18.15.209.315.43l.247.318.072.088.191.236q.052.064.107.129.092.111.19.222.058.068.12.137.063.074.13.148l.214.235.118.127q.204.216.42.432c1.183 1.172 2.613 2.256 4.242 2.893a9 9 0 0 0 .823.277q.37.105.751.175l.082.016q.196.034.395.059l.071.008q.195.023.393.036l.09.004q.204.012.413.013l.41-.013.09-.004q.2-.012.395-.036l.068-.008q.198-.024.393-.058l.096-.019a8.3 8.3 0 0 0 1.572-.454c1.627-.637 3.054-1.719 4.235-2.89a18 18 0 0 0 .603-.628q.068-.073.133-.146.075-.083.147-.167l.16-.182.106-.127.155-.186a19 19 0 0 0 .287-.355l.104-.133.113-.148q.15-.198.284-.386c.362-.498.65-.935.856-1.267q.101-.166.175-.293-.074-.128-.175-.294a21 21 0 0 0-.885-1.307q-.127-.175-.267-.36l-.16-.209-.052-.065a22 22 0 0 0-.28-.348q-.076-.092-.155-.186l-.12-.14-.158-.183q-.075-.085-.152-.17l-.152-.167a18 18 0 0 0-.567-.59c-1.181-1.17-2.608-2.253-4.235-2.89a9 9 0 0 0-.844-.284 8 8 0 0 0-.728-.17l-.096-.019a8 8 0 0 0-.393-.058l-.068-.008a8 8 0 0 0-.394-.036l-.09-.004a8 8 0 0 0-.824 0M12 7a5 5 0 1 1 0 10 5 5 0 0 1 0-10m0 1.5a3.5 3.5 0 1 0 0 7 3.5 3.5 0 0 0 0-7"/></svg>
